src/icons/svg/charts.svg

<svg t="1571284527993" class="icon" viewBox="0 0 1024 1024" version="1.1" xmlns="http://www.w3.org/2000/svg" p-id="14148" width="128" height="128"><path d="M480 853.333333v-85.333333H192a85.333333 85.333333 0 0 1-85.333333-85.333333V234.666667a85.333333 85.333333 0 0 1 85.333333-85.333334h640a85.333333 85.333333 0 0 1 85.333333 85.333334v448a85.333333 85.333333 0 0 1-85.333333 85.333333H544v85.333333h213.333333a32 32 0 0 1 0 64h-490.666666a32 32 0 0 1 0-64h213.333333zM192 213.333333a21.333333 21.333333 0 0 0-21.333333 21.333334v448a21.333333 21.333333 0 0 0 21.333333 21.333333h640a21.333333 21.333333 0 0 0 21.333333-21.333333V234.666667a21.333333 21.333333 0 0 0-21.333333-21.333334H192z m107.648 269.418667a32 32 0 1 1-59.306667-24.021333c30.293333-74.88 83.968-114.986667 156.8-114.986667 46.976 0 78.101333 24.234667 127.317334 82.218667l10.197333 12.074666c45.333333 53.76 68.096 71.829333 95.786667 71.573334 52.885333-0.512 81.557333-17.002667 93.504-49.813334a32 32 0 1 1 60.138666 21.888c-21.973333 60.416-75.477333 91.178667-153.045333 91.925334-54.464 0.512-87.381333-25.642667-145.301333-94.293334l-10.069334-11.946666c-37.077333-43.669333-57.578667-59.648-78.549333-59.648-45.418667 0-76.501333 23.253333-97.472 75.029333z"  p-id="14149"></path></svg>

<svg class="icon" viewBox="0 0 1024 1024" xmlns="http://www.w3.org/2000/svg" width="128" height="128"><path d="M480 853.333V768H192a85.333 85.333 0 01-85.333-85.333v-448A85.333 85.333 0 01192 149.333h640a85.333 85.333 0 0185.333 85.334v448A85.333 85.333 0 01832 768H544v85.333h213.333a32 32 0 010 64H266.667a32 32 0 010-64H480zm-288-640a21.333 21.333 0 00-21.333 21.334v448A21.333 21.333 0 00192 704h640a21.333 21.333 0 0021.333-21.333v-448A21.333 21.333 0 00832 213.333H192zm107.648 269.419a32 32 0 11-59.307-24.021c30.294-74.88 83.968-114.987 156.8-114.987 46.976 0 78.102 24.235 127.318 82.219l10.197 12.074c45.333 53.76 68.096 71.83 95.787 71.574 52.885-.512 81.557-17.003 93.504-49.814a32 32 0 1160.138 21.888c-21.973 60.416-75.477 91.179-153.045 91.926-54.464.512-87.381-25.643-145.301-94.294l-10.07-11.946c-37.077-43.67-57.578-59.648-78.549-59.648-45.419 0-76.501 23.253-97.472 75.029z"/></svg>
